X:1
T:Etüde d-moll
T:Etüde d-moll
T:Carl Albert Loeschorn
T:Ⓒ 2018 Jurijf
T:Ⓒ 2018 Jurijf
C:Carl Albert Loeschorn
Z:Ⓒ 2018 Jurijf
%%score { 1 | 2 }
L:1/8
M:2/4
K:F
V:1 treble nm="Piano" snm="Pno."
V:2 treble 
V:1
!f! a/f'/e'/d'/ ^c'/d'/e'/c'/ | d'a =c'/b/a/g/ | b/a/g/f/ a/g/f/e/ | g/f/e/d/ [^ce]2 | %4
!mf! A/f/e/d/ ^c/d/e/c/ | dA =c/B/A/G/ | B/A/G/F/ A/G/F/E/ | D2 .[FA].[FA] | [EG]2 .[DF].[DF] | %9
 [^CE]2 .[DF].[DF] | .[^CE].[CE] .[DF].[DF] | [^CE] z!p! .[fa].[fa] | [eg]2 .[df].[df] | %13
 [^ce]2 .[df].[df] | .[^ce].[ce] .[df].[df] |!<(! [^ce]2 z2!<)! |!f! a/f'/e'/d'/ ^c'/d'/e'/c'/ | %17
 d'a =c'/b/a/g/ | b/a/g/f/ a/g/f/e/ | g/f/e/d/ [^ce]2 |!mf! A/f/e/d/ ^c/d/e/c/ | dA =c/B/A/G/ | %22
 B/A/G/F/ A/G/F/E/ |!f! DD/E/ G/F/E/D/ | z D/E/ G/F/E/D/ | [FA]3 [DF] | [EG]3 [^CE] | %27
!p! DD/E/ G/F/E/D/ | z D/E/ G/F/E/D/ | [FA]3 [DF] | [EG]3 [^CE] | DF/G/ A/F/G/E/ | DF/G/ A/F/G/E/ | %33
!<(! DF/G/ A/F/G/E/!<)! | DF/G/ A/F/G/E/ |!f! D2 z2 | [GA^c]2 z2 | [FAd]2 z2 |] %38
V:2
 [DFA]2 .[DGB].[DGB] | [DFA]2 [G,B,E]2 | [A,DF]2 [A,^CG]2 | [DF]2 .A.A, | %4
[K:bass] [D,F,A,]2 .[D,G,B,].[D,G,B,] | [D,F,A,]2 [G,,B,,E,]2 | [A,,D,F,]2 [A,,^C,G,]2 | %7
 .[D,F,].D,, z2 | A,/^G,/A,/G,/ A, z | A,/^G,/A,/G,/ A, z | A,/^G,/A,/G,/ A,/G,/A,/G,/ | A, z z2 | %12
[K:treble] A/^G/A/G/ A z | A/^G/A/G/ A z | A/^G/A/G/ A/G/A/G/ | A/^G/A/G/ A/=G/F/E/ | %16
 [DFA]2 .[DGB].[DGB] | [DFA]2 [G,B,E]2 | [A,DF]2 [A,^CG]2 | [DF]2 .A.A, | %20
[K:bass] [D,F,A,]2 .[D,G,B,].[D,G,B,] | [D,F,A,]2 [G,,B,,E,]2 | [A,,D,F,]2 [A,,^C,G,]2 | %23
 [B,,D,F,]3 [G,,D,F,] | [^G,,D,F,]3 [G,,D,F,] | z A,/^G,/ A, z | z A,,/^G,,/ A,, z | %27
 [B,,D,F,]3 [G,,D,F,] | [^G,,D,F,]3 [G,,D,F,] | z A,,/^G,,/ A,, z | z A,,/^G,,/ A,, z | %31
 [D,F,A,]3 [D,G,A,] | [D,F,A,]3 [D,G,A,] | [D,F,A,]3 [D,G,A,] | [D,F,A,]3 [D,G,A,] | [D,F,A,]2 z2 | %36
 A,,2 z2 | D,D,, z2 |] %38

